X:1
T:The Windbird
M: 4/4
L: 1/8
C:T. S. Macdonald
K:G
%%text Slowish
D | B>cd<B A>GE<G | D>B (c/B/)A/G/ F<AD>G | B<cd>B A>GE<G | A>B (c/d/)e/c/ B<G G:|
f | g>dB<G F<DD>f | (g/f/)e/f/ g>d B<dd>f | g<dB<g b>ga>f | A<B (c/d/)e/c/ B<G G|] 


